X:211
T: Shuang dai honghua shang Beijing
N: C0339
O: China,nan Anhui, Lujiang, Sden)
S: III, 537]
N: neuer Text, aber vom Laien- Volkssaenger geschrieben.
N: Vereinzelt Glissandi.
R: Shange, Mengjiangn diao. Xin minge]
M: 2/4
L: 1/16
K: D
B,2D2A,2F,2 | A,6B,2 | D2E2F2A2 | A6d2 | B2d2B2A2 | FAF2E4- | E8 |
E2FAFEEB, | B,DB,2A,4- | A,8 |
B,DEFA2AF | BAFEDB,3 |
F,A,B,D-D4 | F2EDA,B,B,A,- | A,8

@@@ Tune index: 6212
